svg/color/bscm.svg

<svg version="1.1" id="Layer_1" xmlns="http://www.w3.org/2000/svg" xmlns:xlink="http://www.w3.org/1999/xlink" x="0px" y="0px"
	 width="100%" viewBox="0 0 200 200" enable-background="new 0 0 200 200" xml:space="preserve">
<path fill="#FFFFFF" opacity="1.000000" stroke="none" 
	d="
M135.000000,201.000000 
	C90.000000,201.000000 45.500004,201.000000 1.000006,201.000000 
	C1.000004,134.333344 1.000004,67.666679 1.000002,1.000015 
	C67.666656,1.000010 134.333313,1.000010 200.999969,1.000005 
	C200.999985,67.666649 200.999985,134.333298 201.000000,200.999969 
	C179.166672,201.000000 157.333328,201.000000 135.000000,201.000000 
M109.995506,59.120235 
	C109.995506,56.513000 109.995506,53.905766 109.995506,51.285622 
	C103.729584,51.285622 97.996033,51.285622 91.822037,51.285622 
	C91.822037,54.302551 91.822037,57.036217 91.822037,60.039822 
	C85.572205,60.039822 79.764954,60.039822 73.995239,59.118397 
	C73.995239,56.512146 73.995239,53.905899 73.995239,51.282284 
	C67.733162,51.282284 62.001034,51.282284 55.834373,51.282284 
	C55.834373,54.296593 55.834373,57.035210 55.834373,60.200901 
	C52.660316,60.200901 49.923973,60.200901 46.760475,60.200901 
	C46.760475,63.379860 46.760475,66.121979 46.760475,68.844498 
	C43.582024,68.986717 40.843929,69.109238 38.353737,69.220657 
	C38.353737,96.439987 38.353737,123.145035 38.353737,149.677338 
	C80.400574,149.677338 122.093063,149.677338 163.698639,149.677338 
	C163.698639,122.638031 163.698639,95.922424 163.698639,69.042290 
	C160.585724,69.042290 157.772919,69.042290 154.995483,68.121506 
	C154.995483,65.439209 154.995483,62.756908 154.995483,60.039871 
	C151.489700,60.039871 148.723709,60.039871 145.995255,59.118443 
	C145.995255,56.511490 145.995255,53.904537 145.995255,51.285553 
	C139.729416,51.285553 133.995697,51.285553 127.822449,51.285553 
	C127.822449,54.301220 127.822449,57.044460 127.822449,60.042316 
	C121.573479,60.042316 115.766823,60.042316 109.995506,59.120235 
z"/>
<path fill="#371D70" opacity="1.000000" stroke="none" 
	d="
M154.960114,69.042290 
	C157.772919,69.042290 160.585724,69.042290 163.698639,69.042290 
	C163.698639,95.922424 163.698639,122.638031 163.698639,149.677338 
	C122.093063,149.677338 80.400574,149.677338 38.353737,149.677338 
	C38.353737,123.145035 38.353737,96.439987 38.353737,69.220657 
	C40.843929,69.109238 43.582024,68.986717 46.760475,68.844498 
	C46.760475,66.121979 46.760475,63.379860 46.760475,60.200901 
	C49.923973,60.200901 52.660316,60.200901 55.834373,60.200901 
	C55.834373,57.035210 55.834373,54.296593 55.834373,51.282284 
	C62.001034,51.282284 67.733162,51.282284 73.995239,51.282284 
	C73.995239,53.905899 73.995239,56.512146 73.998093,59.558311 
	C74.000954,59.998222 74.043808,59.956223 73.584290,59.974495 
	C70.523849,59.992764 67.922928,59.992764 64.975204,59.992764 
	C64.975204,63.374924 64.975204,66.175201 64.519112,68.985748 
	C61.467953,68.996002 58.872887,68.996002 56.342682,68.996002 
	C56.342682,93.344749 56.342682,117.042694 56.342682,140.650848 
	C89.375404,140.650848 122.064278,140.650848 155.043762,140.650848 
	C155.043762,116.520485 155.043762,92.738335 155.022751,68.977615 
	C155.001740,68.999039 154.960114,69.042290 154.960114,69.042290 
z"/>
<path fill="#371D70" opacity="1.000000" stroke="none" 
	d="
M109.960167,60.042316 
	C115.766823,60.042316 121.573479,60.042316 127.822449,60.042316 
	C127.822449,57.044460 127.822449,54.301220 127.822449,51.285553 
	C133.995697,51.285553 139.729416,51.285553 145.995255,51.285553 
	C145.995255,53.904537 145.995255,56.511490 145.998108,59.558342 
	C146.000961,59.998245 146.043808,59.956223 145.584320,59.974491 
	C142.523788,59.992760 139.922760,59.992760 136.975494,59.992760 
	C136.975494,63.377888 136.975494,66.176544 136.520462,68.985657 
	C133.476761,68.996124 130.888077,68.996124 127.978638,68.996124 
	C127.978638,72.394264 127.978638,75.186348 127.532471,77.987961 
	C124.397987,77.991142 121.709671,77.984787 119.012428,77.522820 
	C119.003502,74.478539 119.003502,71.889862 119.003502,68.975494 
	C115.608093,68.975494 112.816452,68.975494 110.014359,68.525932 
	C110.017212,65.369652 110.030510,62.662941 110.022797,59.977654 
	C110.001785,59.999077 109.960167,60.042316 109.960167,60.042316 
z"/>
<path fill="#371D70" opacity="1.000000" stroke="none" 
	d="
M73.979332,60.019020 
	C79.764954,60.039822 85.572205,60.039822 91.822037,60.039822 
	C91.822037,57.036217 91.822037,54.302551 91.822037,51.285622 
	C97.996033,51.285622 103.729584,51.285622 109.995506,51.285622 
	C109.995506,53.905766 109.995506,56.513000 109.977837,59.581276 
	C109.960167,60.042316 110.001785,59.999077 109.563263,59.995914 
	C106.523743,59.992752 103.922737,59.992752 100.975502,59.992752 
	C100.975502,63.377903 100.975502,66.176544 100.520470,68.985657 
	C97.476761,68.996124 94.888084,68.996124 91.978645,68.996124 
	C91.978645,72.391426 91.978645,75.184929 91.532478,77.987961 
	C88.397995,77.991135 85.709671,77.984779 83.012428,77.522797 
	C83.003502,74.478600 83.003502,71.890038 83.003502,68.975189 
	C79.607780,68.975189 76.816139,68.975189 74.014267,68.525284 
	C74.017296,65.368996 74.030556,62.662609 74.043808,59.956223 
	C74.043808,59.956223 74.000954,59.998222 73.979332,60.019020 
z"/>
<path fill="#371D70" opacity="1.000000" stroke="none" 
	d="
M145.979340,60.019058 
	C148.723709,60.039871 151.489700,60.039871 154.995483,60.039871 
	C154.995483,62.756908 154.995483,65.439209 154.977798,68.581894 
	C154.960114,69.042290 155.001740,68.999039 154.571152,68.995865 
	C151.435303,68.986954 148.730042,68.981224 146.014328,68.525925 
	C146.017181,65.369652 146.030487,62.662937 146.043793,59.956223 
	C146.043808,59.956223 146.000961,59.998245 145.979340,60.019058 
z"/>
<path fill="#CBBBFB" opacity="1.000000" stroke="none" 
	d="
M146.024780,68.975487 
	C148.730042,68.981224 151.435303,68.986954 154.592163,68.974442 
	C155.043762,92.738335 155.043762,116.520485 155.043762,140.650848 
	C122.064278,140.650848 89.375404,140.650848 56.342682,140.650848 
	C56.342682,117.042694 56.342682,93.344749 56.342682,68.996002 
	C58.872887,68.996002 61.467953,68.996002 64.528915,68.995438 
	C64.994812,68.994865 65.014061,69.014053 65.009415,69.481735 
	C65.004776,90.503441 65.004776,111.057465 65.004776,131.645721 
	C92.387718,131.645721 118.924873,131.645721 145.985962,131.645721 
	C145.985962,110.535378 145.985962,89.774719 145.995605,69.004456 
	C146.005249,68.994843 146.024780,68.975487 146.024780,68.975487 
z"/>
<path fill="#CBBBFB" opacity="1.000000" stroke="none" 
	d="
M73.584290,59.974495 
	C74.030556,62.662609 74.017296,65.368996 74.004601,68.535080 
	C74.005165,68.994766 73.985947,69.014053 73.537407,69.009491 
	C70.397263,69.007965 67.705666,69.011009 65.014061,69.014053 
	C65.014061,69.014053 64.994812,68.994865 64.985008,68.985176 
	C64.975204,66.175201 64.975204,63.374924 64.975204,59.992764 
	C67.922928,59.992764 70.523849,59.992764 73.584290,59.974495 
z"/>
<path fill="#CBBBFB" opacity="1.000000" stroke="none" 
	d="
M145.584320,59.974491 
	C146.030487,62.662937 146.017181,65.369652 146.014328,68.525925 
	C146.024780,68.975487 146.005249,68.994843 145.547058,68.999878 
	C142.397263,69.007965 139.705643,69.011017 137.004425,69.004425 
	C136.994812,68.994774 136.975494,68.975197 136.975494,68.975197 
	C136.975494,66.176544 136.975494,63.377888 136.975494,59.992760 
	C139.922760,59.992760 142.523788,59.992760 145.584320,59.974491 
z"/>
<path fill="#CBBBFB" opacity="1.000000" stroke="none" 
	d="
M110.024803,68.975494 
	C112.816452,68.975494 115.608093,68.975494 119.003502,68.975494 
	C119.003502,71.889862 119.003502,74.478539 119.003159,77.532181 
	C119.002815,77.997147 118.985947,78.014053 118.531708,78.009460 
	C108.739113,77.845985 110.155746,79.243248 109.995735,69.993561 
	C109.990082,69.667099 109.989098,69.340561 109.995590,69.004448 
	C110.005241,68.994843 110.024803,68.975494 110.024803,68.975494 
z"/>
<path fill="#CBBBFB" opacity="1.000000" stroke="none" 
	d="
M127.978638,77.978439 
	C127.978638,75.186348 127.978638,72.394264 127.978638,68.996124 
	C130.888077,68.996124 133.476761,68.996124 136.520462,68.985657 
	C136.975494,68.975197 136.994812,68.994774 136.999847,69.458656 
	C136.846039,79.261055 138.243042,77.844215 128.993546,78.004265 
	C128.667068,78.009911 128.340546,78.010902 128.005600,78.005600 
	C127.997169,77.997147 127.978638,77.978439 127.978638,77.978439 
z"/>
<path fill="#CBBBFB" opacity="1.000000" stroke="none" 
	d="
M100.975502,68.975189 
	C100.975502,66.176544 100.975502,63.377903 100.975502,59.992752 
	C103.922737,59.992752 106.523743,59.992752 109.584274,59.974487 
	C110.030510,62.662941 110.017212,65.369652 110.014359,68.525932 
	C110.024803,68.975494 110.005241,68.994843 109.547058,68.999878 
	C106.397263,69.007965 103.705658,69.011009 101.004440,69.004410 
	C100.994835,68.994766 100.975502,68.975189 100.975502,68.975189 
z"/>
<path fill="#CBBBFB" opacity="1.000000" stroke="none" 
	d="
M119.012085,77.987793 
	C121.709671,77.984787 124.397987,77.991142 127.532471,77.987961 
	C127.978638,77.978439 127.997169,77.997147 128.001022,78.460114 
	C128.004868,81.484215 128.004868,84.045349 128.004868,86.651672 
	C124.619263,86.651672 122.068169,86.651672 118.985947,86.651672 
	C118.985947,83.545334 118.985947,80.779694 118.985947,78.014053 
	C118.985947,78.014053 119.002815,77.997147 119.012085,77.987793 
z"/>
<path fill="#CBBBFB" opacity="1.000000" stroke="none" 
	d="
M74.014832,68.984978 
	C76.816139,68.975189 79.607780,68.975189 83.003502,68.975189 
	C83.003502,71.890038 83.003502,74.478600 83.003159,77.532150 
	C83.002815,77.997147 82.985947,78.014053 82.531693,78.009460 
	C72.739136,77.845985 74.155754,79.243309 73.995743,69.993561 
	C73.990089,69.667099 73.989105,69.340561 73.985947,69.014053 
	C73.985947,69.014053 74.005165,68.994766 74.014832,68.984978 
z"/>
<path fill="#CBBBFB" opacity="1.000000" stroke="none" 
	d="
M91.978645,77.978432 
	C91.978645,75.184929 91.978645,72.391426 91.978645,68.996124 
	C94.888084,68.996124 97.476761,68.996124 100.520470,68.985657 
	C100.975502,68.975189 100.994835,68.994766 100.999855,69.458649 
	C100.845985,79.260895 102.243248,77.844254 92.993561,78.004265 
	C92.667099,78.009918 92.340561,78.010895 92.005615,78.005600 
	C91.997185,77.997147 91.978645,77.978432 91.978645,77.978432 
z"/>
<path fill="#CBBBFB" opacity="1.000000" stroke="none" 
	d="
M83.012085,77.987793 
	C85.709671,77.984779 88.397995,77.991135 91.532478,77.987961 
	C91.978645,77.978432 91.997185,77.997147 92.001022,78.460114 
	C92.004868,81.484207 92.004868,84.045349 92.004868,86.651672 
	C88.619247,86.651672 86.068161,86.651672 82.985947,86.651672 
	C82.985947,83.545341 82.985947,80.779694 82.985947,78.014053 
	C82.985947,78.014053 83.002815,77.997147 83.012085,77.987793 
z"/>
<path fill="#9F7AF8" opacity="1.000000" stroke="none" 
	d="
M82.531693,78.009460 
	C82.985947,80.779694 82.985947,83.545341 82.985947,86.651672 
	C86.068161,86.651672 88.619247,86.651672 92.004868,86.651672 
	C92.004868,84.045349 92.004868,81.484207 92.009460,78.468567 
	C92.340561,78.010895 92.667099,78.009918 92.993561,78.004265 
	C102.243248,77.844254 100.845985,79.260895 101.009460,69.468300 
	C103.705658,69.011009 106.397263,69.007965 109.537399,69.009491 
	C109.989098,69.340561 109.990082,69.667099 109.995735,69.993561 
	C110.155746,79.243248 108.739113,77.845985 118.531708,78.009460 
	C118.985947,80.779694 118.985947,83.545334 118.985947,86.651672 
	C122.068169,86.651672 124.619263,86.651672 128.004868,86.651672 
	C128.004868,84.045349 128.004868,81.484215 128.009460,78.468567 
	C128.340546,78.010902 128.667068,78.009911 128.993546,78.004265 
	C138.243042,77.844215 136.846039,79.261055 137.009460,69.468307 
	C139.705643,69.011017 142.397263,69.007965 145.537415,69.009491 
	C145.985962,89.774719 145.985962,110.535378 145.985962,131.645721 
	C118.924873,131.645721 92.387718,131.645721 65.004776,131.645721 
	C65.004776,111.057465 65.004776,90.503441 65.009415,69.481735 
	C67.705666,69.011009 70.397263,69.007965 73.537407,69.009491 
	C73.989105,69.340561 73.990089,69.667099 73.995743,69.993561 
	C74.155754,79.243309 72.739136,77.845985 82.531693,78.009460 
M118.999146,119.424355 
	C118.999146,117.688667 118.999146,115.952972 118.999146,113.810440 
	C112.583397,113.810440 106.995010,113.810440 101.384613,113.810440 
	C101.384613,110.679863 101.384613,107.977058 101.384613,104.868835 
	C107.350815,104.868835 112.940025,104.868835 118.646912,104.868835 
	C118.646912,101.739929 118.646912,99.038193 118.646912,96.415009 
	C109.592972,96.415009 100.897331,96.415009 92.301605,96.415009 
	C92.301605,105.410210 92.301605,113.987480 92.301605,122.990265 
	C100.538551,122.990265 108.482910,123.072433 116.420273,122.874298 
	C117.298615,122.852379 118.136993,121.229492 118.999146,119.424355 
z"/>
<path fill="#371D70" opacity="1.000000" stroke="none" 
	d="
M118.996521,119.886734 
	C118.136993,121.229492 117.298615,122.852379 116.420273,122.874298 
	C108.482910,123.072433 100.538551,122.990265 92.301605,122.990265 
	C92.301605,113.987480 92.301605,105.410210 92.301605,96.415009 
	C100.897331,96.415009 109.592972,96.415009 118.646912,96.415009 
	C118.646912,99.038193 118.646912,101.739929 118.646912,104.868835 
	C112.940025,104.868835 107.350815,104.868835 101.384613,104.868835 
	C101.384613,107.977058 101.384613,110.679863 101.384613,113.810440 
	C106.995010,113.810440 112.583397,113.810440 118.999146,113.810440 
	C118.999146,115.952972 118.999146,117.688667 118.996521,119.886734 
z"/>
</svg>

<svg xmlns="http://www.w3.org/2000/svg" xml:space="preserve" viewBox="0 0 200 200"><path fill="#FFF" d="M135 201H1V1h200v200zM109.996 59.12v-7.834H91.822v8.754c-6.25 0-12.057 0-17.827-.922v-7.836h-18.16v8.919H46.76v8.643l-8.406.377v80.456h125.345V69.042c-3.113 0-5.926 0-8.704-.92V60.04c-3.505 0-6.271 0-9-.922v-7.832h-18.173v8.756c-6.249 0-12.055 0-17.826-.922"/><path fill="#371D70" d="M154.96 69.042h8.739v80.635H38.354V69.221l8.406-.377v-8.643h9.074v-8.919h18.161c0 2.624 0 5.23.003 8.276.003.44.046.398-.414.416-3.06.019-5.661.019-8.609.019 0 3.382 0 6.182-.456 8.993-3.051.01-5.646.01-8.176.01v71.655h98.7c0-24.13 0-47.913-.02-71.673z"/><path fill="#371D70" d="M109.96 60.042h17.862v-8.756h18.173c0 2.619 0 5.225.003 8.272.003.44.046.398-.414.416-3.06.019-5.661.019-8.609.019 0 3.385 0 6.184-.455 8.993-3.043.01-5.632.01-8.541.01 0 3.398 0 6.19-.447 8.992-3.134.003-5.822-.003-8.52-.465-.008-3.044-.008-5.633-.008-8.548-3.396 0-6.188 0-8.99-.45.003-3.155.017-5.862.009-8.547zm-35.98-.023c5.785.02 11.592.02 17.842.02v-8.753h18.174c0 2.62 0 5.227-.018 8.295-.018.461.024.418-.415.415-3.04-.003-5.64-.003-8.587-.003 0 3.385 0 6.184-.456 8.993-3.043.01-5.632.01-8.541.01 0 3.395 0 6.189-.447 8.992-3.134.003-5.822-.003-8.52-.465-.008-3.044-.008-5.633-.008-8.548-3.396 0-6.188 0-8.99-.45.003-3.156.017-5.862.03-8.569zm72 .001c2.744.02 5.51.02 9.015.02 0 2.717 0 5.4-.017 8.542-.018.46.024.417-.407.414-3.136-.009-5.841-.015-8.557-.47.003-3.156.016-5.863.03-8.57z"/><path fill="#CBBBFB" d="M146.025 68.975c2.705.006 5.41.012 8.567 0 .452 23.763.452 47.545.452 71.676H56.343V68.996h8.186c.466-.001.485.018.48.486-.004 21.021-.004 41.575-.004 62.164h80.981c0-21.11 0-41.871.01-62.642z"/><path fill="#CBBBFB" d="M73.584 59.974c.447 2.689.433 5.395.42 8.561.001.46-.018.48-.467.474-3.14-.001-5.831.002-8.523.005l-.029-.029c-.01-2.81-.01-5.61-.01-8.992 2.948 0 5.549 0 8.61-.019m71.999 0c.446 2.689.433 5.396.43 8.552.01.45-.009.469-.467.474-3.15.008-5.841.011-8.543.004l-.029-.029v-8.982c2.948 0 5.549 0 8.61-.019m-35.56 9.001h8.979v8.557c-.001.465-.018.482-.472.477-9.793-.163-8.376 1.234-8.536-8.015a27 27 0 0 1 0-.99zm17.954 9.003v-8.982c2.91 0 5.498 0 8.541-.01.455-.01.475.009.48.473-.154 9.802 1.243 8.385-8.006 8.545-.327.006-.653.007-.988.002z"/><path fill="#CBBBFB" d="M100.976 68.975v-8.982c2.947 0 5.548 0 8.608-.019.447 2.689.433 5.396.43 8.552.01.45-.009.469-.467.474-3.15.008-5.841.011-8.543.004zm18.036 9.013c2.698-.003 5.386.003 8.52 0 .447-.01.465.01.469.472.004 3.024.004 5.585.004 8.192h-9.02v-8.638zm-44.997-9.003c2.801-.01 5.593-.01 8.989-.01v8.557c-.001.465-.018.482-.472.477-9.793-.163-8.376 1.234-8.536-8.015q-.007-.49-.01-.98zm17.964 8.993v-8.982c2.91 0 5.498 0 8.541-.01.456-.01.475.009.48.473-.154 9.802 1.243 8.385-8.006 8.545-.327.006-.653.007-.988.002z"/><path fill="#CBBBFB" d="M83.012 77.988c2.698-.003 5.386.003 8.52 0 .447-.01.465.01.469.472.004 3.024.004 5.585.004 8.192h-9.02v-8.638z"/><path fill="#9F7AF8" d="M82.532 78.01c.454 2.77.454 5.535.454 8.642h9.019c0-2.607 0-5.168.004-8.183.332-.458.658-.46.985-.465 9.25-.16 7.852 1.257 8.015-8.536 2.697-.457 5.388-.46 8.528-.459.452.332.453.658.459.985.16 9.25-1.257 7.852 8.536 8.015.454 2.77.454 5.536.454 8.643h9.019c0-2.607 0-5.168.004-8.183.332-.458.658-.46.985-.465 9.249-.16 7.852 1.257 8.015-8.536 2.697-.457 5.388-.46 8.528-.459.449 20.766.449 41.526.449 62.637H65.005c0-20.589 0-41.143.004-62.164 2.697-.471 5.388-.474 8.528-.473.452.332.453.658.459.985.16 9.25-1.257 7.852 8.536 8.015m36.467 41.415v-5.614h-17.614v-8.941h17.262v-8.454H92.302v26.575c8.237 0 16.18.082 24.118-.116.879-.022 1.717-1.645 2.58-3.45"/><path fill="#371D70" d="M118.997 119.887c-.86 1.342-1.698 2.965-2.577 2.987-7.937.198-15.881.116-24.118.116V96.415h26.345v8.454h-17.262v8.941h17.614c0 2.143 0 3.879-.002 6.077"/></svg>
